X:0457
M:6/8
L:1/8
Q:3/8=120
K:G
f|g2f eag|f2e dgf|e2d BAB| dBd He2
g|G2d dcB|c2e efg|dBg dBG| A2G  G2:|

